X: 754
M: 6/8
L: 1/8
K: D
V: 1
d2A FED | BGB A2d | cde fed | e3 e2d/e/ |\
fdf ece | dBd cBA | ^GAB EA^G | A3 A2 :|
|: A/B/ |\
cde ecA | Bdc dAF | BGB AFD | E3 E2F/G/ |\
V: 2 clef=bass middle=d
z |\
d2e f2d | g3 f2d | a3 d'3 | a2b c'2a |\
d'3 a3 | b3 a2d | e3 E3 | a3 A2 :|
|: z |\
a3 g3 | f3 d3 | g3 d3 | a2g f2e |\
d3 g3 | a2g f2g | a3 A3 | d3 D2 |]

